X:1
T:Christian Fink 1831 - 1911
T:Fürwahr, er trug unsre Krankheit
%%score [ 1 2 3 4 ]
L:1/8
Q:1/4=100
M:4/4
K:Eb
V:1 treble nm="Sopran"
V:2 treble nm="Alt"
V:3 treble-8 nm="Tenor"
V:4 bass nm="Bass"
V:1
!p!"^Jesaja 53, 4 u. 5" G2 | G6 G2 |!<(! G4 G2 G2!<)! |!>(! A8 | G6!>)! E2 | F3 F F2 (G2 | %6
w: Für-|wahr, er|trug uns- re|Krank-|heit und|lud auf~ ~sich uns-|
 B4!<(! G2) G2!<)! | (E4!>(! F4) | !fermata!G8!>)! |"^etwas bewegter" G4 G2 G2 | A3 A A2 A2 | %11
w: * * re|Schmer- *|zen.|Wir a- ber|hiel- ten ihn für|
 B4 B2 B2 | c8 | c2!<(! c2 A2 c2 | d4!<)! d4 | e2 e2 (e2 d)c |!>(! (c4 =B4)!>)! | c8 | %18
w: den, der ge-|plagt|und von Gott ge-|schla- gen|und ge- mar \- tert|wä- *|re.|
"^erstes Zeitmaß"!p! c6 A2 | A8- | A2 FF A2 A2 |!<(! B3 B!<)! B4 | A2!<(! FF _G4!<)! | %23
w: A- ber|er|* ist um uns- rer|Mis- se- tat|wil- len ver- wun-|
!>(! F4!>)! F2 c2 |!<(! _d3 d!<)!!f! (e2 B2 | c2 _d2 A2) B2 |!>(! c2 G!>)!G!>(! A4-!>)! | %27
w: det und um|uns- rer Sün- *|* * * de|wil- len zer- schla-|
!>(! A4!>)! G4 | z4 z2 z!p! C | =E3!<(! E E2 E2 | F8-!<)! |!p!!>(! F2!>)!"^tranquillo" A2 G2 F2 | %32
w: * gen.|Die|Stra- fe liegt auf|ihm,|* auf daß wir|
 (E4!>(! A2) F2!>)! |!p! E8 | E2 z2 z2!p!"^più animato" AA |"^cresc." G6 G2 |!f! (c2 d2 e4 | %37
w: Frie- * den|hät-|ten, und~ ~durch|sei- ne|Wun * *|
 d4) c4- | c2 c2 =B2 =A2 | =B8 | !fermata!c8 |] %41
w: * den|* sind wir ge-|hei-|let.|
V:2
!p! E2 | E6 E2 |!<(! E4 E2 E2!<)! |!>(! E8 | E6!>)! E2 | D3 D D2 (E2 |!<(! D6) D2!<)! | %7
w: Für-|wahr, er|trug uns- re|Krank-|heit und|lud auf~ ~sich uns-|* re|
 (E6!>(! CD) | !fermata!D8!>)! | =E4 E2 E2 | F3 F F2 F2 | G4 G2 G2 | A8 | E2!<(! E2 A2 F2 | %14
w: Schmer- * *|zen.|Wir a- ber|hiel- ten ihn für|den, der ge-|plagt|und von Gott ge-|
 F4!<)! F4 | G2 G2 A3 A |!>(! G8!>)! | G8 |!p! A6 F2 | F8- | F2 FF F2 FE |!<(! _D3 D!<)! (D2 E2) | %22
w: schla- gen|und ge- mar- tert|wä-|re.|A- ber|er|* ist um uns- rer *|Mis- se- tat *|
 F2!<(! FF (F2!<)! E_D) |!>(! C4!>)! F2 F2 |!<(! F3 F!<)!!f! (G4- | G2 F4) F2 | %26
w: wil- len ver- wun- * *|det und um|uns- rer Sün-|* * de|
!>(! =E2 G!>)!G!>(! (G2 F_E!>)! |!>(! D4!>)! =E4 | z4 z2 z!p! C | C3!<(! C C2 C2 | _D8-!<)! | %31
w: wil- len zer- schla- * *|* gen.|Die|Stra- fe liegt auf|ihm,|
!p!!>(! D2!>)! _D2 D2 D2 | _D2 C2!>(! F2) D2!>)! |!p! (C4 B,2!>(! _D2) | C2!>)!!p! EE F3 E | %35
w: * auf daß wir|Frie- * * den|hät- * *|ten, und~ ~durch sei- ne|
 =D3"^cresc." D (C2 D2) |!f! (G2 F2 E3) G | F4 E2 AA | (G8- | G4 F4) | !fermata!=E8 |] %41
w: Wun- den sind *|wir * * ge-|hei- let, wir ge-|hei-||let.|
V:3
!p! c2 | (c4 G2) G2 |!<(! G4 c2 c2!<)! |!>(! c8 | c6!>)! G2 | B3 B B4- | B2 (G2!<(! B2) B2!<)! | %7
w: Für-|wahr, * er|trug uns- re|Krank-|heit und|lud auf~ ~sich|* uns * re|
 (e2 d2!>(! c4) | !fermata!=B8!>)! | c4 c2 c2 | c3 c c2 c2 | e4 e2 e2 | e8 | A2!<(! A2 c2 c2 | %14
w: Schmer * *|zen.|Wir a- ber|hiel- ten ihn für|den, der ge-|plagt|und von Gott ge-|
 B4!<)! B4 | B2 B2 (A2 f)e |!>(! d8!>)! | =e8 | z8 |!p! c6 A2 | A2 AA c2 c2 | %21
w: schla- gen|und ge- mar \- tert|wä-|re.||A- ber|er ist um uns- rer|
!<(! B3 B!<)! (B2 c2) | _d2!<(! dc B4!<)! |!>(! =A4!>)! A2 A2 |!<(! B3 B!<)!!f! (B4 | _A4 F2) G2 | %26
w: Mis- se- tat *|wil- len ver- wun-|det und um|uns- rer Sün-|* * de|
!>(! G2 c!>)!c!>(! (c4!>)! |!>(! =B4!>)! c4 | z2!p! c2 (c4 | G3)!<(! G G2 G2 | A8-!<)! | %31
w: wil- len zer- schla-|* gen.|Die Stra-|* fe liegt auf|ihm,|
!p!!>(! A2!>)! F2 B2 B2 | B2 A4)!>(! A2!>)! |!p! (A4!>(! G4) | A2!>)!!p! cc (c2 d)c | %35
w: * auf daß wir|Frie- * den|hät- *|ten, und~ ~durch sei- * ne|
 (c2 =B)"^cresc."B (=A2 B2) |!f! c6 _B2 | (A2 B2) c2 fe | d8- | d8 | !fermata!c8 |] %41
w: Wun * den sind *|wir ge-|hei- * let, wir ge-|hei-||let.|
V:4
!p! C,2 | C,6 C,2 |!<(! C,4 C,2 C,2!<)! |!>(! A,,8 | C,6!>)! C,2 | B,,3 B,, B,,2 (E,2 | %6
w: Für-|wahr, er|trug uns- re|Krank-|heit und|lud auf~ ~sich uns-|
!<(! G,6) B,2!<)! | (C2 B,2!>(! A,4) | !fermata!G,8!>)! | C,4 C,2 C,2 | F,3 F, F,2 F,2 | %11
w: * re|Schmer * *|zen.|Wir a- ber|hiel- ten ihn für|
 E,4 E,2 E,2 | A,8 | A,2!<(! A,2 F,2 A,2 | B,4!<)! B,,4 | E,2 E,2 F,3 F, |!>(! G,8!>)! | C,8 | z8 | %19
w: den, der ge-|plagt|und von Gott ge-|schla- gen|und ge- mar- tert|wä-|re.||
!p! A,6 F,2 | F,2 F,F, F,2 F,2 |!<(! _G,3 G,!<)! G,4 | _D,2!<(! D,D, E,4!<)! | %23
w: A- ber|er ist um uns- rer|Mis- se- tat|wil- len ver- wun-|
!>(! F,4!>)! F,2 F,2 |!<(! B,,3 B,,!<)!!f! (E,4 | A,,2 _D,4) D,2 |!>(! C,2 =E,!>)!E,!>(! F,4-!>)! | %27
w: det und um|uns- rer Sün-|* * de|wil- len zer- schla-|
!>(! F,4!>)! C,4 | z4 z2 z!p! C, | C,3!<(! C, C,4- | C,3 C,!<)! B,,4- | %31
w: * gen.|Die|Stra- fe liegt|* auf ihm,|
!p!!>(! B,,2!>)! F,2 B,2 A,2 | (G,2 A,2!>(! _D,2) D,2!>)! |!p!!>(! E,8 | A,,2!>)!!p! A,A, A,2 F,2 | %35
w: * auf daß wir|Frie- * * den|hät-|ten und~ ~durch sei- ne|
 G,6"^cresc." F,2 |!f! E,2 D,D, (C,4 | F,2 G,2) A,2 F,F, | G,8- | G,8 | !fermata!C,8 |] %41
w: Wun- den|sind wir ge- hei-|* * let, wir ge-|hei-||let.|

